atlas.svg

<svg width="132" height="32" viewBox="0 0 132 32" fill="none" xmlns="http://www.w3.org/2000/svg">
<path d="M21.4294 4.94625L11.4028 23.3292C17.1639 13.9661 29.1573 18.4643 30.4259 20.2974L21.4352 4.94043L21.4294 4.94625Z" fill="#4F38DD"/>
<path d="M0.666504 32L18.4908 0L20.9873 4.32951L6.19478 32H0.666504Z" fill="#4F38DD"/>
<path d="M30.4145 20.2915L21.4237 4.93457L19.0728 9.38047C19.0728 9.38047 21.8893 14.4956 23.6583 17.7194C28.6396 18.2257 30.4145 20.2915 30.4145 20.2915Z" fill="#8B82E7"/>
<path d="M37.3039 32.0001H31.5079C31.5079 32.0001 26.7478 23.3236 23.6636 17.7139C28.6448 18.2201 30.4197 20.286 30.4197 20.286L37.3039 32.0001Z" fill="white"/>
<path d="M128.351 9.48334L126.639 9.52782C126.639 9.52782 125.927 9.5723 125.549 9.68351C125.193 9.77248 124.859 9.90594 124.57 10.1061C124.281 10.2841 124.036 10.5287 123.836 10.8401C123.658 11.1293 123.569 11.5074 123.569 11.93C123.569 12.3303 123.658 12.664 123.814 12.9309C123.969 13.22 124.192 13.4424 124.481 13.6426C124.77 13.8428 125.126 14.0207 125.549 14.1542C125.949 14.3099 126.416 14.4433 126.905 14.599C127.461 14.777 128.04 14.9772 128.64 15.2218C129.241 15.4442 129.797 15.7556 130.286 16.1337C130.798 16.5119 131.198 16.9789 131.51 17.5572C131.843 18.1355 131.999 18.8473 131.999 19.6925C131.999 20.6267 131.821 21.4496 131.487 22.1614C131.131 22.8509 130.687 23.4292 130.108 23.8963C129.53 24.3633 128.863 24.697 128.084 24.9416C127.306 25.1641 126.505 25.2975 125.638 25.2975C121.99 25.253 119.076 25.1641 119.076 25.1641L121.256 22.5395C121.256 22.5395 124.993 22.6507 125.682 22.6507C126.038 22.6507 126.416 22.6062 126.794 22.5173C127.172 22.4283 127.506 22.2726 127.795 22.0502C128.106 21.8278 128.351 21.5831 128.529 21.2717C128.729 20.9381 128.818 20.5377 128.818 20.0706C128.818 19.6035 128.707 19.2254 128.507 18.9363C128.284 18.6249 127.995 18.358 127.639 18.1578C127.284 17.9354 126.861 17.7352 126.349 17.5572C125.86 17.4016 125.348 17.2236 124.792 17.0457C124.259 16.89 123.747 16.6898 123.213 16.4451C122.679 16.2227 122.212 15.9113 121.79 15.5332C121.389 15.1551 121.033 14.688 120.789 14.1542C120.522 13.5981 120.388 12.9086 120.388 12.0857C120.388 11.196 120.566 10.4398 120.922 9.79473C121.3 9.14971 121.79 8.63814 122.368 8.21554C122.969 7.79294 123.658 7.48155 124.414 7.28137C125.193 7.05895 125.838 6.99221 126.75 6.96997C128.396 6.92548 130.219 6.96997 130.219 6.96997L128.307 9.50559L128.351 9.48334Z" fill="white"/>
<path d="M107.419 6.70215H107.375L116.272 24.8295H112.713L111.089 20.8259H103.527L101.948 24.8295H98.478L107.442 6.70215H107.419ZM109.999 18.8686L107.308 12.4629L104.572 18.8686H109.999Z" fill="white"/>
<path d="M85.0439 8.74914L88.1578 7.37012V22.0722H95.5867V24.8302H85.0662V8.74914H85.0439Z" fill="white"/>
<path d="M71.5891 10.0837H66.251L66.9405 7.37012H80.0634L79.3739 10.0837H74.703V24.8302H71.5891V10.0837Z" fill="white"/>
<path d="M56.2197 6.70215H56.1752L65.0721 24.8295H61.5133L59.8896 20.8259H52.3273L50.7481 24.8295H47.2783L56.2419 6.70215H56.2197ZM58.7998 18.8686L56.1085 12.4629L53.3727 18.8686H58.7998Z" fill="white"/>
</svg>

<svg xmlns="http://www.w3.org/2000/svg" width="132" height="32" fill="none"><path fill="#4F38DD" d="M21.43 4.946 11.402 23.33c5.76-9.363 17.754-4.865 19.023-3.032L21.436 4.94zM.667 32 18.49 0l2.496 4.33L6.195 32z"/><path fill="#8B82E7" d="M30.415 20.292 21.424 4.935 19.073 9.38s2.816 5.116 4.585 8.34c4.982.506 6.756 2.572 6.756 2.572"/><path fill="#fff" d="M37.304 32h-5.796s-4.76-8.676-7.844-14.286c4.98.506 6.756 2.572 6.756 2.572zM128.351 9.483l-1.712.045s-.712.044-1.09.156a3 3 0 0 0-.979.422 2.3 2.3 0 0 0-.734.734c-.178.29-.267.667-.267 1.09 0 .4.089.734.245 1 .155.29.378.512.667.713s.645.378 1.068.511c.4.156.867.29 1.356.445a24 24 0 0 1 1.735.623 6.2 6.2 0 0 1 1.646.912c.512.378.912.845 1.224 1.423.333.579.489 1.29.489 2.136 0 .934-.178 1.757-.512 2.468-.356.69-.8 1.268-1.379 1.735-.578.467-1.245.801-2.024 1.046a8.8 8.8 0 0 1-2.446.355c-3.648-.044-6.562-.133-6.562-.133l2.18-2.625s3.737.112 4.426.112c.356 0 .734-.045 1.112-.134a2.6 2.6 0 0 0 1.001-.467c.311-.222.556-.467.734-.778.2-.334.289-.734.289-1.201s-.111-.846-.311-1.135a2.7 2.7 0 0 0-.868-.778 6.3 6.3 0 0 0-1.29-.6c-.489-.156-1.001-.334-1.557-.512a11.5 11.5 0 0 1-1.579-.6 5 5 0 0 1-1.423-.913 4.5 4.5 0 0 1-1.001-1.379q-.4-.834-.401-2.068c0-.89.178-1.646.534-2.291a5.2 5.2 0 0 1 1.446-1.58 6.4 6.4 0 0 1 2.046-.934c.779-.222 1.424-.289 2.336-.311 1.646-.045 3.469 0 3.469 0l-1.912 2.536zM107.419 6.702h-.044l8.897 18.127h-3.559l-1.624-4.003h-7.562l-1.579 4.003h-3.47l8.964-18.127zm2.58 12.167-2.691-6.406-2.736 6.406zM85.044 8.75l3.114-1.38v14.702h7.429v2.758h-10.52V8.75zM71.59 10.084H66.25l.69-2.714h13.122l-.69 2.714h-4.67V24.83h-3.114zM56.22 6.702h-.045l8.897 18.127h-3.559l-1.623-4.003h-7.563l-1.579 4.003h-3.47l8.964-18.127zM58.8 18.87l-2.691-6.406-2.736 6.406z"/></svg>
